client/resources/iconsets/breeze/src/svg/16x16/icon_flag_orange.svg

<svg xmlns="http://www.w3.org/2000/svg" width="16" height="16" viewBox="0 0 16 16">
 <path style="fill:#f68a20"
       d="M 5.5136719 2 C 5.2309589 1.9969073 5.0001503 2.2251218 5 2.5078125 L 5 9.4921875 C 5.0003638 9.8401497 5.3424344 10.084803 5.671875 9.9726562 L 14.658203 6.9238281 C 15.095071 6.7730761 15.120201 6.1647896 14.697266 5.9785156 L 5.7128906 2.0429688 C 5.6500589 2.0153386 5.582308 2.0007218 5.5136719 2 z "
       />
 <path style="fill:#6d6d70"
       d="M 3 2 C 2.446 2 2 2.446 2 3 L 2 14 C 2 14.554 2.446 15 3 15 C 3.554 15 4 14.554 4 14 L 4 3 C 4 2.446 3.554 2 3 2 z "
       />
</svg>

<svg xmlns="http://www.w3.org/2000/svg" width="16" height="16"><path d="M5.514 2A.51.51 0 0 0 5 2.508v6.984a.51.51 0 0 0 .672.48l8.986-3.049a.51.51 0 0 0 .039-.945L5.713 2.043A.51.51 0 0 0 5.514 2z" fill="#f68a20"/><path d="M3 2a1 1 0 0 0-1 1v11a1 1 0 0 0 1 1 1 1 0 0 0 1-1V3a1 1 0 0 0-1-1z" fill="#6d6d70"/></svg>
